lib/assets/trash/default.svg

<svg width="48" height="48" viewBox="0 0 48 48" fill="none" xmlns="http://www.w3.org/2000/svg">
<path d="M20 30L20 24" stroke="#EBEBEB" stroke-width="4" stroke-linecap="square"/>
<path d="M28 30L28 24" stroke="#EBEBEB" stroke-width="4" stroke-linecap="square"/>
<path d="M6 14H42V14C40.1362 14 39.2044 14 38.4693 14.3045C37.4892 14.7105 36.7105 15.4892 36.3045 16.4693C36 17.2044 36 18.1362 36 20V40H12V20C12 18.1362 12 17.2044 11.6955 16.4693C11.2895 15.4892 10.5108 14.7105 9.53073 14.3045C8.79565 14 7.86377 14 6 14V14Z" stroke="#EBEBEB" stroke-width="4" stroke-linecap="round"/>
<path d="M21.565 6.20665C22.2635 6.07264 23.1195 6 24 6C24.8805 6 25.7365 6.07264 26.435 6.20665" stroke="#EBEBEB" stroke-width="4" stroke-linecap="square"/>
</svg>

<svg width="48" height="48" viewBox="0 0 48 48" fill="none" xmlns="http://www.w3.org/2000/svg"><path d="M20 30v-6M28 30v-6" stroke="#EBEBEB" stroke-width="4" stroke-linecap="square"/><path d="M6 14h36v0c-1.864 0-2.796 0-3.53.305a4 4 0 0 0-2.166 2.164C36 17.204 36 18.136 36 20v20H12V20c0-1.864 0-2.796-.305-3.53a4 4 0 0 0-2.164-2.165C8.796 14 7.864 14 6 14v0Z" stroke="#EBEBEB" stroke-width="4" stroke-linecap="round"/><path d="M21.565 6.207A13.359 13.359 0 0 1 24 6c.88 0 1.736.073 2.435.207" stroke="#EBEBEB" stroke-width="4" stroke-linecap="square"/></svg>
